X: 1
T: P\`ere Doiron
R: reel
S: Fiddle Hell Online 2022-3-26 handout for Fiddle Hell jam session
B: the Portland Collection 2 p.156
Z: 2022 John Chambers <jc:trillian.mit.edu>
M: C|
L: 1/8
K: Amix
|:\
"A"ea- ag aged | cdef "G"gedg | "A"ea- ag aged | "G"cAGB "A"A4 ||
"A"ea- ag aged | cdef "G"gedg | "A"eaag aged |1 "G"cAGB "A"A4 :|2 "G"cAGB "A"A2 ||
|: AB |\
"A"cAEA cAeA | "G"BAGA BcdB | "A"cAEA cAeA | "G"BAGB "A"A2AB |
"A"cAEA cAeA | "G"BAGA BcdB | "A"cAEA cAeA |1 "G"BAGB "A"A2  :|2 "G"BAGB "A"A4 |]
